public/fi_1995685-Cl-Oibpi.svg

<svg width="82" height="82" viewBox="0 0 82 82" fill="none" xmlns="http://www.w3.org/2000/svg">
<path d="M11.5312 24.3438H70.4688C71.828 24.3438 73.1315 24.8837 74.0927 25.8448C75.0538 26.806 75.5938 28.1095 75.5938 29.4688V69.1875C75.5938 70.2069 75.1888 71.1846 74.4679 71.9054C73.7471 72.6263 72.7694 73.0312 71.75 73.0312H10.25C9.23057 73.0312 8.2529 72.6263 7.53206 71.9054C6.81122 71.1846 6.40625 70.2069 6.40625 69.1875V29.4688C6.40625 28.1095 6.9462 26.806 7.90733 25.8448C8.86845 24.8837 10.172 24.3437 11.5312 24.3438Z" fill="#348FD9"/>
<path d="M68.9697 10.4678C68.0058 9.5099 66.7027 8.97118 65.3438 8.96875H16.6562C15.9832 8.96856 15.3167 9.10099 14.6948 9.35848C14.0729 9.61597 13.5078 9.99347 13.0319 10.4694C12.556 10.9453 12.1785 11.5104 11.921 12.1323C11.6635 12.7542 11.5311 13.4207 11.5313 14.0938V74.3125H70.4688V14.0938C70.4663 12.7348 69.9276 11.4317 68.9697 10.4678Z" fill="#60D1E0"/>
<path d="M16.6562 12.8125H19.2188V15.375H16.6562V12.8125Z" fill="#3FB7C7"/>
<path d="M21.7812 12.8125H24.3438V15.375H21.7812V12.8125Z" fill="#3FB7C7"/>
<path d="M26.9062 12.8125H29.4688V15.375H26.9062V12.8125Z" fill="#3FB7C7"/>
<path d="M16.6562 17.9375H48.6875V20.5H16.6562V17.9375Z" fill="#3FB7C7"/>
<path d="M68.9697 10.4678C68.0058 9.5099 66.7027 8.97118 65.3438 8.96875H16.6562C15.9832 8.96856 15.3167 9.10099 14.6948 9.35848C14.0729 9.61597 13.5078 9.99347 13.0319 10.4694C12.556 10.9453 12.1785 11.5104 11.921 12.1323C11.6635 12.7542 11.5311 13.4207 11.5313 14.0938V74.3125H70.4688V14.0938C70.4663 12.7348 69.9276 11.4317 68.9697 10.4678Z" fill="#60D1E0"/>
<path d="M16.6562 12.8125H19.2188V15.375H16.6562V12.8125Z" fill="#3FB7C7"/>
<path d="M21.7812 12.8125H24.3438V15.375H21.7812V12.8125Z" fill="#3FB7C7"/>
<path d="M26.9062 12.8125H29.4688V15.375H26.9062V12.8125Z" fill="#3FB7C7"/>
<path d="M16.6562 17.9375H48.6875V20.5H16.6562V17.9375Z" fill="#3FB7C7"/>
<path d="M70.4688 25.625L21.7812 74.3125H70.4688V25.625Z" fill="#5AC6D4"/>
<path d="M48.6875 71.75C47.8671 72.5704 46.7544 73.0312 45.5942 73.0312H36.4058C35.2456 73.0312 34.1329 72.5704 33.3125 71.75C32.4921 70.9296 31.3794 70.4688 30.2192 70.4688H3.84375V74.3125C3.84375 75.3319 4.24872 76.3096 4.96956 77.0304C5.6904 77.7513 6.66807 78.1562 7.6875 78.1562H74.3125C75.3319 78.1562 76.3096 77.7513 77.0304 77.0304C77.7513 76.3096 78.1562 75.3319 78.1562 74.3125V70.4688H51.7808C50.6206 70.4688 49.5079 70.9296 48.6875 71.75Z" fill="#E0E0DE"/>
<path d="M73.0312 70.4688V74.3125C73.0312 75.3319 72.6263 76.3096 71.9054 77.0304C71.1846 77.7513 70.2069 78.1562 69.1875 78.1562H74.3125C75.3319 78.1562 76.3096 77.7513 77.0304 77.0304C77.7513 76.3096 78.1562 75.3319 78.1562 74.3125V70.4688H73.0312Z" fill="#D6D6D4"/>
<path d="M70.4688 38.4375H75.5938V41H70.4688V38.4375Z" fill="#3086CD"/>
<path d="M6.40625 60.2188H11.5312V62.7812H6.40625V60.2188Z" fill="#3086CD"/>
<path d="M55.0938 38.4375H70.4688V41H55.0938V38.4375Z" fill="#5AC6D4"/>
<path d="M11.5312 52.5312H42.2812V62.7812H11.5312V52.5312Z" fill="#5AC6D4"/>
<path d="M52.5312 19.2188H78.1562V38.4375H52.5312V19.2188Z" fill="#FFB531"/>
<path d="M55.0938 14.0938H60.2188C60.2188 12.7345 60.7587 11.431 61.7198 10.4698C62.681 9.5087 63.9845 8.96875 65.3438 8.96875C66.703 8.96875 68.0065 9.5087 68.9677 10.4698C69.9288 11.431 70.4688 12.7345 70.4688 14.0938V19.2188H75.5938V14.0938C75.5938 11.3753 74.5138 8.76815 72.5916 6.84591C70.6693 4.92366 68.0622 3.84375 65.3438 3.84375C62.6253 3.84375 60.0182 4.92366 58.0959 6.84591C56.1737 8.76815 55.0938 11.3753 55.0938 14.0938Z" fill="#E0E0DE"/>
<path d="M67.277 28.5726C67.5997 28.2016 67.8089 27.7457 67.8796 27.2591C67.9503 26.7725 67.8795 26.2759 67.6757 25.8285C67.4719 25.381 67.1437 25.0016 66.7302 24.7356C66.3167 24.4696 65.8354 24.3281 65.3438 24.3281C64.8521 24.3281 64.3708 24.4696 63.9573 24.7356C63.5438 25.0016 63.2156 25.381 63.0118 25.8285C62.808 26.2759 62.7372 26.7725 62.8079 27.2591C62.8786 27.7457 63.0878 28.2016 63.4105 28.5726C62.4676 28.9561 61.6604 29.6119 61.0919 30.4563C60.5234 31.3007 60.2194 32.2953 60.2188 33.3132H70.4688C70.4681 32.2953 70.1641 31.3007 69.5956 30.4563C69.0271 29.6119 68.2199 28.9561 67.277 28.5726Z" fill="#95573A"/>
<path d="M52.5312 38.4373H78.1562C74.4009 35.8085 69.9278 34.3984 65.3438 34.3984C60.7597 34.3984 56.2866 35.8085 52.5312 38.4373Z" fill="#FFA912"/>
<path d="M78.1562 19.2188H52.5312C56.2866 21.8476 60.7597 23.2577 65.3438 23.2577C69.9278 23.2577 74.4009 21.8476 78.1562 19.2188Z" fill="#FFCB73"/>
<path d="M3.84375 49.9688H39.7188V60.2188H3.84375V49.9688Z" fill="#FFB531"/>
<path d="M3.84375 49.9688H39.7188V52.5312H3.84375V49.9688Z" fill="#FFA912"/>
<path d="M7.6875 29.4688C7.6885 28.6742 7.93533 27.8994 8.39411 27.2507C8.8529 26.6019 9.50117 26.1111 10.25 25.8454V46.125H12.8125V14.0938C12.8136 13.0747 13.219 12.0977 13.9396 11.3771C14.6602 10.6565 15.6372 10.2511 16.6562 10.25H51.25V7.6875H16.6562C14.9578 7.68941 13.3294 8.36496 12.1285 9.56595C10.9275 10.7669 10.2519 12.3953 10.25 14.0938V23.1914C8.80406 23.4886 7.50481 24.2753 6.57124 25.4187C5.63768 26.5622 5.1269 27.9926 5.125 29.4688V44.8438H7.6875V29.4688Z" fill="black"/>
<path d="M78.1562 69.1875H76.875V42.2812H74.3125V69.1875H51.7806C51.0376 69.1855 50.3016 69.3308 49.6151 69.6152C48.9287 69.8995 48.3054 70.3172 47.7815 70.844C47.4949 71.1321 47.1541 71.3605 46.7787 71.5161C46.4033 71.6716 46.0008 71.7511 45.5944 71.75H36.4056C35.9992 71.7511 35.5967 71.6716 35.2213 71.5161C34.8459 71.3605 34.505 71.1321 34.2185 70.844C33.6946 70.3172 33.0713 69.8995 32.3849 69.6152C31.6984 69.3308 30.9624 69.1855 30.2194 69.1875H7.6875V64.0625H5.125V69.1875H3.84375C3.50394 69.1875 3.17805 69.3225 2.93777 69.5628C2.69749 69.803 2.5625 70.1289 2.5625 70.4688V74.3125C2.56403 75.6713 3.10447 76.9739 4.06526 77.9347C5.02606 78.8955 6.32873 79.436 7.6875 79.4375H74.3125C75.6713 79.436 76.9739 78.8955 77.9347 77.9347C78.8955 76.9739 79.436 75.6713 79.4375 74.3125V70.4688C79.4375 70.1289 79.3025 69.803 79.0622 69.5628C78.822 69.3225 78.4961 69.1875 78.1562 69.1875ZM76.875 74.3125C76.8742 74.9919 76.604 75.6432 76.1236 76.1236C75.6432 76.604 74.9919 76.8742 74.3125 76.875H7.6875C7.00813 76.8742 6.35682 76.604 5.87643 76.1236C5.39604 75.6432 5.12581 74.9919 5.125 74.3125V71.75H30.2194C30.6258 71.7489 31.0283 71.8284 31.4037 71.9839C31.7791 72.1395 32.12 72.3679 32.4065 72.656C32.9298 73.1822 33.5522 73.5995 34.2377 73.8838C34.9232 74.1681 35.6582 74.3138 36.4003 74.3125H45.5997C46.3418 74.3138 47.0768 74.1682 47.7623 73.8839C48.4478 73.5996 49.0702 73.1823 49.5935 72.6562C49.88 72.368 50.2209 72.1396 50.5963 71.984C50.9717 71.8285 51.3742 71.7489 51.7806 71.75H76.875V74.3125Z" fill="black"/>
<path d="M69.1875 42.2812H71.75V66.625H69.1875V42.2812Z" fill="black"/>
<path d="M10.25 64.0625H12.8125V66.625H10.25V64.0625Z" fill="black"/>
<path d="M16.6562 12.8125H19.2188V15.375H16.6562V12.8125Z" fill="black"/>
<path d="M21.7812 12.8125H24.3438V15.375H21.7812V12.8125Z" fill="black"/>
<path d="M26.9062 12.8125H29.4688V15.375H26.9062V12.8125Z" fill="black"/>
<path d="M16.6562 17.9375H48.6875V20.5H16.6562V17.9375Z" fill="black"/>
<path d="M36.3735 26.9431C38.4096 26.0112 40.6542 25.6283 42.8842 25.8326C45.1142 26.0369 47.2518 26.8213 49.0847 28.1078L50.5601 26.0125C47.9718 24.1894 44.8834 23.2109 41.7175 23.2109C38.5517 23.2109 35.4633 24.1894 32.875 26.0125L34.3502 28.1078C34.9878 27.6588 35.665 27.269 36.3735 26.9431Z" fill="black"/>
<path d="M49.4439 67.192C52.2793 64.2524 54.5236 60.7954 56.0549 57.0091L53.6799 56.0469C52.271 59.5303 50.2062 62.7107 47.5977 65.4152L49.4439 67.192Z" fill="black"/>
<path d="M78.157 17.9375H76.8758V14.0937C76.8758 11.0355 75.6609 8.10245 73.4983 5.93992C71.3358 3.7774 68.4028 2.5625 65.3445 2.5625C62.2862 2.5625 59.3532 3.7774 57.1907 5.93992C55.0282 8.10245 53.8133 11.0355 53.8133 14.0937C53.8133 14.4336 53.9483 14.7594 54.1885 14.9997C54.4288 15.24 54.7547 15.375 55.0945 15.375H60.2195C60.5593 15.375 60.8852 15.24 61.1255 14.9997C61.3658 14.7594 61.5008 14.4336 61.5008 14.0937C61.5008 13.0743 61.9057 12.0967 62.6266 11.3758C63.3474 10.655 64.3251 10.25 65.3445 10.25C66.3639 10.25 67.3416 10.655 68.0625 11.3758C68.7833 12.0967 69.1883 13.0743 69.1883 14.0937V17.9375H52.532C52.1922 17.9375 51.8663 18.0725 51.626 18.3128C51.3858 18.553 51.2508 18.8789 51.2508 19.2187V30.8695C48.0204 29.1967 44.4336 28.3294 40.7958 28.3412H40.6164C36.3415 28.3386 32.1654 29.626 28.634 32.0351L30.0744 34.1543C33.1812 32.0344 36.8553 30.9012 40.6164 30.9031H40.7958C44.4827 30.8863 48.1019 31.8929 51.2508 33.8107V36.9C48.2308 34.6521 44.562 33.4469 40.7974 33.4661H40.618C37.9758 33.4769 35.3753 34.1254 33.0375 35.3564C30.6996 36.5875 28.6935 38.3647 27.1895 40.5371L26.5742 41.4212L28.6779 42.8847L29.2921 42.0019C30.5598 40.1682 32.2514 38.6676 34.2232 37.6275C36.195 36.5875 38.3887 36.0388 40.618 36.0281H40.7974C45.5761 36.0281 49.9796 38.2205 52.5756 41.8916C53.483 43.1749 54.1617 44.6053 54.582 46.1197C55.2632 48.5119 55.2627 51.0469 54.5806 53.4389L57.047 54.1349C57.8582 51.2878 57.8587 48.2707 57.0484 45.4234C56.5494 43.6291 55.7445 41.9345 54.6691 40.414C54.5013 40.1766 54.3261 39.9455 54.1459 39.7187H78.157C78.4968 39.7187 78.8227 39.5838 79.063 39.3435C79.3033 39.1032 79.4383 38.7773 79.4383 38.4375V19.2187C79.4383 18.8789 79.3033 18.553 79.063 18.3128C78.8227 18.0725 78.4968 17.9375 78.157 17.9375ZM65.3445 7.6875C63.8683 7.68933 62.4378 8.20007 61.2941 9.13363C60.1505 10.0672 59.3637 11.3665 59.0664 12.8125H56.4671C56.7899 10.5673 57.9515 8.52774 59.7179 7.10468C61.4843 5.68161 63.7243 4.98072 65.9868 5.14315C68.2493 5.30559 70.3662 6.31928 71.9112 7.98008C73.4562 9.64089 74.3145 11.8254 74.3133 14.0937V17.9375H71.7508V14.0937C71.7489 12.3953 71.0733 10.7669 69.8723 9.56595C68.6713 8.36496 67.043 7.68941 65.3445 7.6875ZM76.8758 37.1562H53.8133V20.5H76.8758V37.1562Z" fill="black"/>
<path d="M69.0059 28.0594C69.126 27.6868 69.1873 27.2977 69.1875 26.9062C69.1875 25.8868 68.7825 24.9092 68.0617 24.1883C67.3409 23.4675 66.3632 23.0625 65.3438 23.0625C64.3243 23.0625 63.3467 23.4675 62.6258 24.1883C61.905 24.9092 61.5 25.8868 61.5 26.9062C61.5003 27.2977 61.5615 27.6868 61.6816 28.0594C60.833 28.6473 60.1399 29.4326 59.6619 30.3476C59.1839 31.2627 58.9353 32.2801 58.9375 33.3125C58.9375 33.6523 59.0725 33.9782 59.3128 34.2185C59.5531 34.4588 59.879 34.5938 60.2188 34.5938H70.4688C70.8086 34.5938 71.1345 34.4588 71.3747 34.2185C71.615 33.9782 71.75 33.6523 71.75 33.3125C71.7522 32.2801 71.5036 31.2627 71.0256 30.3476C70.5476 29.4326 69.8545 28.6473 69.0059 28.0594ZM61.7188 32.0312C61.8999 31.5198 62.1876 31.0527 62.5627 30.6606C62.9377 30.2686 63.3917 29.9606 63.8947 29.757C64.0828 29.6802 64.25 29.5597 64.3825 29.4056C64.5149 29.2514 64.6087 29.0679 64.6562 28.8703C64.7037 28.6726 64.7035 28.4666 64.6557 28.269C64.6078 28.0715 64.5136 27.8882 64.3809 27.7343C64.1783 27.5057 64.0652 27.2116 64.0625 26.9062C64.0625 26.5664 64.1975 26.2405 64.4378 26.0003C64.6781 25.76 65.004 25.625 65.3438 25.625C65.6836 25.625 66.0095 25.76 66.2497 26.0003C66.49 26.2405 66.625 26.5664 66.625 26.9062C66.6224 27.2117 66.5093 27.506 66.3066 27.7346C66.1739 27.8885 66.0797 28.0718 66.0319 28.2694C65.984 28.4669 65.9838 28.673 66.0313 28.8706C66.0788 29.0682 66.1727 29.2517 66.3051 29.4059C66.4375 29.5601 66.6047 29.6805 66.7929 29.7574C67.2958 29.9609 67.7497 30.2688 68.1248 30.6608C68.4999 31.0528 68.7875 31.5199 68.9687 32.0312H61.7188Z" fill="black"/>
<path d="M3.84375 61.4984H29.8092L29.6518 61.6559L31.4638 63.4684L33.4337 61.4984H37.049L33.4566 65.0896L35.2687 66.9016L41.7108 60.4593C44.1976 57.9818 46.0514 54.942 47.1154 51.5968C47.4036 50.6955 47.473 49.7386 47.3178 48.8051C47.1625 47.8717 46.7871 46.9887 46.2227 46.2293C45.656 45.4468 44.9111 44.8106 44.0496 44.3733C43.188 43.936 42.2347 43.7103 41.2686 43.7148H40.6156C38.0297 43.7148 35.7001 45.4146 34.8161 47.9523C34.7296 48.2059 34.6344 48.4487 34.5297 48.6861H31.5988C31.9356 48.2025 32.204 47.6748 32.3967 47.1178C33.627 43.5497 36.93 41.1523 40.6155 41.1523H41.2689C42.6339 41.1544 43.9793 41.4766 45.1971 42.0931C46.4149 42.7095 47.4711 43.6031 48.2809 44.7019C49.0868 45.7857 49.6227 47.0461 49.844 48.3785C50.0654 49.7108 49.9658 51.0768 49.5536 52.363C48.3679 56.1008 46.3012 59.4989 43.5276 62.271L38.7998 66.9988L40.6118 68.8108L45.3396 64.083C48.4037 61.02 50.6869 57.2655 51.9968 53.1357C52.5325 51.4658 52.6624 49.6923 52.3757 47.9622C52.0889 46.2321 51.3939 44.5953 50.3482 43.1874C49.2998 41.7644 47.9323 40.6071 46.3554 39.8086C44.7786 39.0101 43.0364 38.5927 41.2689 38.5898H40.6156C35.8374 38.5898 31.561 41.6809 29.9744 46.2825C29.7768 46.8451 29.4566 47.3566 29.0368 47.7801L28.1308 48.6859H3.84375C3.50394 48.6859 3.17805 48.8209 2.93777 49.0612C2.69749 49.3015 2.5625 49.6274 2.5625 49.9672V60.2172C2.5625 60.557 2.69749 60.8829 2.93777 61.1232C3.17805 61.3634 3.50394 61.4984 3.84375 61.4984ZM40.6156 46.2772H41.2691C41.8321 46.2747 42.3876 46.4063 42.8896 46.6613C43.3916 46.9162 43.8256 47.2871 44.1557 47.7433C44.4804 48.1786 44.6966 48.685 44.7866 49.2206C44.8765 49.7561 44.8376 50.3054 44.673 50.8229C43.907 53.2588 42.6578 55.5153 41 57.4575V52.9192C41.5879 51.8325 42.0519 50.6831 42.3831 49.4928C42.3946 49.4497 42.3969 49.4047 42.39 49.3607C42.3831 49.3166 42.3671 49.2745 42.343 49.237C42.3189 49.1995 42.2872 49.1675 42.25 49.143C42.2127 49.1184 42.1708 49.1019 42.1269 49.0945L39.7188 48.6859H37.278C37.832 47.2197 39.1299 46.2772 40.6156 46.2772ZM5.125 51.2484H38.4375V58.9359H5.125V51.2484Z" fill="black"/>
<path d="M7.6875 53.8125H10.25V56.375H7.6875V53.8125Z" fill="black"/>
<path d="M12.8125 53.8125H15.375V56.375H12.8125V53.8125Z" fill="black"/>
<path d="M17.9375 53.8125H20.5V56.375H17.9375V53.8125Z" fill="black"/>
<path d="M23.0625 53.8125H25.625V56.375H23.0625V53.8125Z" fill="black"/>
</svg>

<svg xmlns="http://www.w3.org/2000/svg" width="82" height="82" fill="none" viewBox="0 0 82 82"><path fill="#348fd9" d="M11.531 24.344H70.47a5.125 5.125 0 0 1 5.125 5.125v39.719a3.843 3.843 0 0 1-3.844 3.843h-61.5a3.843 3.843 0 0 1-3.844-3.844V29.47a5.125 5.125 0 0 1 5.125-5.125"/><path fill="#60d1e0" d="M68.97 10.468a5.16 5.16 0 0 0-3.626-1.5H16.656a5.123 5.123 0 0 0-5.125 5.126v60.219H70.47v-60.22a5.16 5.16 0 0 0-1.5-3.625"/><path fill="#3fb7c7" d="M16.656 12.813h2.563v2.562h-2.563zM21.781 12.813h2.563v2.562H21.78zM26.906 12.813h2.563v2.562h-2.563zM16.656 17.938h32.032V20.5H16.656z"/><path fill="#60d1e0" d="M68.97 10.468a5.16 5.16 0 0 0-3.626-1.5H16.656a5.123 5.123 0 0 0-5.125 5.126v60.219H70.47v-60.22a5.16 5.16 0 0 0-1.5-3.625"/><path fill="#3fb7c7" d="M16.656 12.813h2.563v2.562h-2.563zM21.781 12.813h2.563v2.562H21.78zM26.906 12.813h2.563v2.562h-2.563zM16.656 17.938h32.032V20.5H16.656z"/><path fill="#5ac6d4" d="M70.469 25.625 21.78 74.313H70.47z"/><path fill="#e0e0de" d="M48.688 71.75a4.38 4.38 0 0 1-3.094 1.281h-9.188c-1.16 0-2.273-.46-3.093-1.281a4.38 4.38 0 0 0-3.094-1.281H3.844v3.844a3.844 3.844 0 0 0 3.844 3.843h66.625a3.843 3.843 0 0 0 3.843-3.844V70.47H51.781c-1.16 0-2.273.46-3.093 1.281"/><path fill="#d6d6d4" d="M73.031 70.469v3.844a3.843 3.843 0 0 1-3.844 3.843h5.126a3.843 3.843 0 0 0 3.843-3.844V70.47z"/><path fill="#3086cd" d="M70.469 38.438h5.125V41h-5.125zM6.406 60.219h5.125v2.562H6.406z"/><path fill="#5ac6d4" d="M55.094 38.438h15.375V41H55.094zM11.531 52.531h30.75v10.25h-30.75z"/><path fill="#ffb531" d="M52.531 19.219h25.625v19.219H52.531z"/><path fill="#e0e0de" d="M55.094 14.094h5.125a5.125 5.125 0 1 1 10.25 0v5.125h5.125v-5.125a10.25 10.25 0 0 0-20.5 0"/><path fill="#95573a" d="M67.277 28.573a2.563 2.563 0 1 0-3.867 0 5.12 5.12 0 0 0-3.191 4.74h10.25a5.12 5.12 0 0 0-3.192-4.74"/><path fill="#ffa912" d="M52.531 38.437h25.625a22.34 22.34 0 0 0-25.625 0"/><path fill="#ffcb73" d="M78.156 19.219H52.531a22.34 22.34 0 0 0 25.625 0"/><path fill="#ffb531" d="M3.844 49.969h35.875v10.25H3.844z"/><path fill="#ffa912" d="M3.844 49.969h35.875v2.562H3.844z"/><path fill="#000" d="M7.688 29.469a3.85 3.85 0 0 1 2.562-3.624v20.28h2.563V14.094a3.85 3.85 0 0 1 3.843-3.844H51.25V7.688H16.656a6.413 6.413 0 0 0-6.406 6.406v9.097a6.42 6.42 0 0 0-5.125 6.278v15.375h2.563zM78.156 69.188h-1.281V42.28h-2.562v26.907H51.78a5.62 5.62 0 0 0-4 1.656 3.08 3.08 0 0 1-2.187.906h-9.188a3.07 3.07 0 0 1-2.187-.906 5.62 5.62 0 0 0-4-1.656H7.688v-5.126H5.124v5.126H3.844a1.28 1.28 0 0 0-1.281 1.28v3.844a5.13 5.13 0 0 0 5.124 5.126h66.626a5.13 5.13 0 0 0 5.124-5.126V70.47a1.28 1.28 0 0 0-1.28-1.281m-1.281 5.124a2.565 2.565 0 0 1-2.562 2.563H7.688a2.565 2.565 0 0 1-2.563-2.562V71.75h25.094a3.07 3.07 0 0 1 2.188.906 5.62 5.62 0 0 0 3.993 1.656h9.2a5.62 5.62 0 0 0 3.993-1.656 3.07 3.07 0 0 1 2.188-.906h25.094z"/><path fill="#000" d="M69.188 42.281h2.562v24.344h-2.562zM10.25 64.063h2.563v2.562H10.25zM16.656 12.813h2.563v2.562h-2.563zM21.781 12.813h2.563v2.562H21.78zM26.906 12.813h2.563v2.562h-2.563zM16.656 17.938h32.032V20.5H16.656zM36.374 26.943a12.83 12.83 0 0 1 12.71 1.165l1.476-2.096a15.355 15.355 0 0 0-17.685 0l1.475 2.096a13 13 0 0 1 2.023-1.165M49.444 67.192a31.9 31.9 0 0 0 6.61-10.183l-2.374-.962a29.3 29.3 0 0 1-6.082 9.368z"/><path fill="#000" d="M78.157 17.938h-1.281v-3.844a11.531 11.531 0 0 0-23.063 0 1.28 1.28 0 0 0 1.281 1.281h5.125a1.28 1.28 0 0 0 1.282-1.281 3.844 3.844 0 1 1 7.687 0v3.844H52.532a1.28 1.28 0 0 0-1.281 1.28V30.87a22.6 22.6 0 0 0-10.455-2.528h-.18a21.24 21.24 0 0 0-11.982 3.694l1.44 2.12a18.7 18.7 0 0 1 10.542-3.252h.18c3.687-.017 7.306.99 10.455 2.908V36.9a17.36 17.36 0 0 0-10.454-3.434h-.179a16.41 16.41 0 0 0-13.429 7.071l-.615.884 2.104 1.464.614-.883a13.85 13.85 0 0 1 11.326-5.974h.18c4.778 0 9.182 2.193 11.778 5.864a13.6 13.6 0 0 1 2.006 4.228c.681 2.392.68 4.927-.001 7.319l2.466.696c.811-2.847.812-5.864.001-8.712a16.2 16.2 0 0 0-2.902-5.704h24.011a1.28 1.28 0 0 0 1.281-1.282V19.22a1.28 1.28 0 0 0-1.281-1.282M65.345 7.688a6.42 6.42 0 0 0-6.279 5.125h-2.599a8.969 8.969 0 0 1 17.846 1.28v3.845h-2.562v-3.844a6.413 6.413 0 0 0-6.407-6.406m11.53 29.468H53.814V20.5h23.063z"/><path fill="#000" d="M69.006 28.06c.12-.373.181-.762.181-1.154a3.844 3.844 0 0 0-7.687 0c0 .392.062.78.182 1.153a6.37 6.37 0 0 0-2.745 5.253 1.28 1.28 0 0 0 1.282 1.282h10.25a1.28 1.28 0 0 0 1.281-1.282 6.37 6.37 0 0 0-2.744-5.253m-7.287 3.971a3.84 3.84 0 0 1 2.176-2.274 1.283 1.283 0 0 0 .486-2.023 1.26 1.26 0 0 1-.319-.828 1.28 1.28 0 1 1 2.563 0c-.003.306-.116.6-.318.829a1.28 1.28 0 0 0 .486 2.022 3.83 3.83 0 0 1 2.176 2.274zM3.844 61.498h25.965l-.157.158 1.812 1.812 1.97-1.97h3.615l-3.592 3.592 1.812 1.812 6.442-6.443a21.87 21.87 0 0 0 5.404-8.862 5.96 5.96 0 0 0-.892-5.368 6.08 6.08 0 0 0-4.954-2.514h-.653c-2.586 0-4.916 1.7-5.8 4.237a9 9 0 0 1-.286.734h-2.931a6.4 6.4 0 0 0 .798-1.568c1.23-3.568 4.533-5.966 8.218-5.966h.654a8.73 8.73 0 0 1 7.012 3.55 8.5 8.5 0 0 1 1.273 7.661 24.5 24.5 0 0 1-6.026 9.908L38.8 66.999l1.812 1.812 4.728-4.728a27.04 27.04 0 0 0 6.657-10.947 11.03 11.03 0 0 0-1.649-9.949 11.3 11.3 0 0 0-9.08-4.597h-.652c-4.779 0-9.055 3.09-10.642 7.692a4 4 0 0 1-.937 1.498l-.906.906H3.844a1.28 1.28 0 0 0-1.281 1.281v10.25a1.28 1.28 0 0 0 1.28 1.281m36.772-15.22h.653a3.54 3.54 0 0 1 2.887 1.465 3.42 3.42 0 0 1 .517 3.08A19 19 0 0 1 41 57.458v-4.539a16.5 16.5 0 0 0 1.383-3.426.32.32 0 0 0-.256-.399l-2.408-.408h-2.441c.554-1.466 1.852-2.409 3.338-2.409m-35.491 4.97h33.313v7.688H5.124z"/><path fill="#000" d="M7.688 53.813h2.562v2.562H7.688zM12.813 53.813h2.562v2.562h-2.562zM17.938 53.813H20.5v2.562h-2.562zM23.063 53.813h2.562v2.562h-2.562z"/></svg>
